X: 11
T:Calliope House [in D]
M:6/8
L:1/8
C:Dave Richardson
R:Double Jig
K:D
a3 faa|eaa def|g3 fgf|efe edB|!
ABA A2F|A2B d2e|1faf fed|e3 efg:|2faf edB|d3 d2A|!
|:dAA fAA|eAA fed|Bee e2d|efd BdB|!
ABA A2F|A2B d2e|1faf fed|e3 edB:|2faf efe|d3 d2f|]!
